images/advantages-1.svg

<svg width="40" height="44" viewBox="0 0 40 44" fill="none" xmlns="http://www.w3.org/2000/svg">
<path d="M20.0917 0.0994591C18.5167 0.0994591 17.0457 0.816646 15.7919 1.99105C14.5383 3.16574 13.465 4.80168 12.5704 6.78327C12.3829 7.1984 12.2038 7.62983 12.0326 8.07487C11.571 8.00159 11.1074 7.94138 10.6423 7.8943C10.1014 7.8404 9.57357 7.80693 9.06075 7.79493C7.52138 7.75837 6.11447 7.91446 4.88138 8.28824C3.23738 8.78671 1.88082 9.70227 1.09332 11.0661C0.305819 12.4301 0.191444 14.0627 0.581725 15.7357C0.972194 17.4087 1.85223 19.1561 3.12113 20.9218C3.38738 21.2921 3.67182 21.6635 3.97201 22.0349C3.67833 22.3974 3.39496 22.7682 3.12226 23.1468C1.85326 24.9124 0.973226 26.6598 0.582851 28.3328C0.192476 30.0059 0.306945 31.6385 1.09444 33.0022C1.88194 34.3663 3.23851 35.2818 4.88251 35.78C6.5266 36.2786 8.47997 36.3901 10.6434 36.174C11.097 36.1286 11.5603 36.0681 12.0317 35.9938C12.199 36.4301 12.3786 36.8616 12.5704 37.2877C13.465 39.2696 14.5382 40.9053 15.7919 42.0799C17.0456 43.2544 18.5168 43.9717 20.0917 43.9717C21.6665 43.9717 23.1376 43.2544 24.3913 42.0799C25.6449 40.9052 26.7182 39.2695 27.6128 37.2877C27.8046 36.8617 27.9842 36.4302 28.1515 35.994C28.6223 36.068 29.0853 36.1287 29.5385 36.174C31.702 36.39 33.6555 36.2785 35.2994 35.78C36.9436 35.2817 38.3002 34.3661 39.0877 33.0022C39.8752 31.6382 39.9895 30.0058 39.5993 28.3328C39.2088 26.6599 38.3287 24.9125 37.0598 23.1468C36.787 22.7683 36.5036 22.3975 36.21 22.0349C36.5041 21.672 36.7879 21.3009 37.0609 20.9219C38.3298 19.1562 39.2098 17.4088 39.6002 15.7358C39.9906 14.0628 39.8761 12.4302 39.0886 11.0661C38.3011 9.70236 36.9445 8.7868 35.3005 8.28833C34.0675 7.91455 32.6605 7.75846 31.1213 7.79493C30.6082 7.80693 30.0803 7.8404 29.5394 7.8943C29.0857 7.93968 28.6219 8.00052 28.1503 8.07477C27.9832 7.63931 27.8038 7.20864 27.6125 6.78327C26.7178 4.8014 25.6447 3.16546 24.3909 1.99096C23.1372 0.816459 21.6661 0.0993652 20.0913 0.0993652L20.0917 0.0994591ZM20.0917 1.85137C21.1421 1.85137 22.1722 2.3129 23.1935 3.2698C24.2147 4.22652 25.1901 5.67477 26.016 7.50421C26.1503 7.8027 26.278 8.10412 26.3991 8.40824C24.3912 8.85468 22.2647 9.53962 20.0911 10.4548C17.918 9.5398 15.7917 8.85505 13.7843 8.40862C13.9082 8.0983 14.0355 7.79586 14.1673 7.50411C14.9933 5.67458 15.9686 4.22633 16.9899 3.26943C18.0113 2.31271 19.0412 1.85118 20.0918 1.85118L20.0917 1.85137ZM8.5051 9.54421C8.67422 9.54252 8.84607 9.54365 9.02054 9.54758C9.48554 9.5579 9.96901 9.5879 10.4683 9.63787C10.7876 9.66974 11.114 9.71052 11.4456 9.75861C10.8281 11.7205 10.3581 13.9044 10.0635 16.2442C8.184 17.6692 6.52744 19.1687 5.13694 20.6845C4.93344 20.4271 4.73567 20.1653 4.54379 19.8991C3.37238 18.2691 2.60598 16.7003 2.28788 15.3374C1.96988 13.9745 2.08538 12.8518 2.61057 11.9421C3.13576 11.0323 4.05057 10.3711 5.38969 9.96505C6.2686 9.69852 7.32094 9.5549 8.50501 9.54412L8.5051 9.54421ZM31.6771 9.54421C32.8612 9.55499 33.9135 9.69861 34.7924 9.96515C36.1317 10.3711 37.0462 11.0323 37.5714 11.9421C38.0966 12.8518 38.2122 13.9746 37.8942 15.3374C37.5764 16.7002 36.8095 18.2691 35.6383 19.8991C35.4465 20.1653 35.2487 20.4272 35.0453 20.6847C33.655 19.1691 31.9989 17.67 30.12 16.2452C29.8256 13.905 29.355 11.7208 28.7376 9.75861C29.0688 9.71052 29.3948 9.66955 29.7138 9.63787C30.1951 9.5891 30.6781 9.55896 31.1617 9.54749C31.3334 9.54359 31.5053 9.54243 31.6771 9.54402V9.54421ZM26.9971 10.073C27.463 11.5203 27.8488 13.1172 28.1367 14.8261C27.2066 14.1978 26.2546 13.6026 25.2824 13.0416C24.311 12.4804 23.3201 11.9537 22.3115 11.4625C23.9352 10.8574 25.5109 10.3931 26.9971 10.0731V10.073ZM13.1861 10.0732C14.6721 10.3933 16.2475 10.8576 17.8708 11.4626C16.8622 11.9538 15.8713 12.4805 14.8999 13.0416C13.9282 13.6023 12.9765 14.1972 12.0467 14.8251C12.3345 13.1166 12.7202 11.5202 13.1861 10.0732ZM20.0911 12.3664C21.5168 12.9952 22.9639 13.7261 24.4064 14.559C25.8495 15.3922 27.2067 16.2802 28.4644 17.2009C28.6328 18.7503 28.7233 20.3694 28.7233 22.0356C28.7233 23.7007 28.633 25.3192 28.4648 26.868C27.2071 27.7884 25.8501 28.6762 24.4074 29.5093C22.9646 30.3423 21.5171 31.0734 20.0912 31.7023C18.6651 31.0734 17.2176 30.3423 15.7748 29.5093C14.3324 28.6765 12.9759 27.789 11.7188 26.8689C11.5505 25.3199 11.46 23.7011 11.46 22.0355C11.46 20.3691 11.5505 18.7497 11.7189 17.2001C12.9764 16.2798 14.3332 15.3919 15.7758 14.559C17.2184 13.7262 18.6655 12.9952 20.0911 12.3666V12.3664ZM20.2096 15.0022L15.1938 18.0976L20.2096 21.1932L25.2254 18.0976L20.2096 15.0021V15.0022ZM9.82585 18.6711C9.74703 19.7907 9.70772 20.9128 9.708 22.0353C9.708 23.1788 9.74832 24.3014 9.82594 25.3975C8.49001 24.2941 7.30004 23.1616 6.27966 22.0344C7.30004 20.9074 8.48991 19.7747 9.82585 18.6711ZM30.3576 18.672C31.6928 19.7754 32.8825 20.9076 33.9025 22.0345C32.8825 23.1614 31.6928 24.2936 30.3576 25.3968C30.4363 24.278 30.4756 23.1569 30.4753 22.0354C30.4753 20.8912 30.435 19.7685 30.3575 18.672H30.3576ZM14.0638 19.4589V25.5712L19.3316 28.8222V22.7102L14.0638 19.4589ZM26.3505 19.4621L21.0839 22.7124V28.8216L26.3506 25.5712V19.4621H26.3505ZM5.13676 23.3846C6.52744 24.9006 8.18382 26.3996 10.0631 27.8246C10.3575 30.1641 10.8278 32.3479 11.445 34.3098C11.1141 34.3576 10.7882 34.3985 10.4694 34.4304C8.47219 34.6298 6.73004 34.5092 5.39082 34.1032C4.05151 33.6973 3.13707 33.0358 2.61179 32.126C2.0866 31.2162 1.97101 30.0935 2.28901 28.7307C2.60701 27.3679 3.37351 25.799 4.54491 24.169C4.73639 23.9032 4.93366 23.6417 5.13676 23.3846ZM35.0453 23.3849C35.2522 23.6474 35.4503 23.909 35.6371 24.169C36.8084 25.7989 37.5749 27.3678 37.8929 28.7306C38.2109 30.0935 38.0956 31.2161 37.5704 32.126C37.045 33.0357 36.1304 33.6972 34.7911 34.1031C33.452 34.5091 31.7101 34.6297 29.7128 34.4303C29.3872 34.3973 29.0622 34.3571 28.7383 34.3099C29.3557 32.3475 29.8258 30.1633 30.1202 27.8233C31.9989 26.3987 33.6551 24.9 35.0453 23.3847L35.0453 23.3849ZM28.1371 29.2427C27.8493 30.9514 27.4636 32.5483 26.9977 33.9955C25.5113 33.6755 23.9355 33.211 22.3117 32.606C23.3205 32.1145 24.3118 31.5877 25.2835 31.0265C26.2555 30.4656 27.2073 29.8706 28.1373 29.2427H28.1371ZM12.0463 29.2436C12.9758 29.8713 13.9271 30.4659 14.8986 31.0265C15.8703 31.5877 16.8616 32.1145 17.8704 32.606C16.2471 33.2109 14.6717 33.6754 13.1855 33.9953C12.7195 32.5484 12.3341 30.9518 12.0463 29.2436ZM20.1435 29.3233L20.2073 29.3627L20.2707 29.3233H20.1436H20.1435ZM20.091 33.614C22.2651 34.529 24.3917 35.2138 26.3998 35.6601C26.2786 35.9651 26.1506 36.2674 26.016 36.5667C25.1901 38.396 24.2147 39.8442 23.1934 40.8011C22.1722 41.7579 21.1421 42.2195 20.0917 42.2195C19.0411 42.2195 18.0111 41.7579 16.9898 40.8011C15.9686 39.8443 14.9933 38.396 14.1673 36.5666C14.0327 36.2673 13.9047 35.965 13.7834 35.66C15.7912 35.2136 17.9176 34.5289 20.0912 33.614H20.091Z" fill="#2B7FFF"/>
</svg>

<svg xmlns="http://www.w3.org/2000/svg" fill="none" viewBox="0 0 40 44">
  <path fill="#2B7FFF" d="M20.092.1c-1.575 0-3.046.717-4.3 1.891-1.254 1.175-2.327 2.81-3.222 4.792-.187.415-.366.847-.537 1.292a24.792 24.792 0 0 0-1.39-.18 20.9 20.9 0 0 0-1.582-.1c-1.54-.037-2.947.12-4.18.493-1.644.499-3 1.414-3.788 2.778-.787 1.364-.902 2.997-.511 4.67.39 1.673 1.27 3.42 2.54 5.186.265.37.55.741.85 1.113a24.69 24.69 0 0 0-.85 1.112C1.853 24.912.973 26.66.582 28.333c-.39 1.673-.275 3.306.512 4.67.788 1.363 2.145 2.279 3.789 2.777 1.644.499 3.597.61 5.76.394.454-.045.917-.106 1.389-.18.167.436.347.868.538 1.294.895 1.982 1.968 3.617 3.222 4.792 1.254 1.174 2.725 1.892 4.3 1.892 1.575 0 3.046-.718 4.3-1.892 1.253-1.175 2.326-2.81 3.22-4.792.193-.426.372-.858.54-1.294.47.074.933.135 1.386.18 2.164.216 4.118.105 5.761-.394 1.645-.498 3.001-1.414 3.789-2.778.787-1.364.901-2.996.511-4.67-.39-1.672-1.27-3.42-2.54-5.185a24.94 24.94 0 0 0-.849-1.112c.294-.363.578-.734.85-1.113 1.27-1.766 2.15-3.513 2.54-5.186.39-1.673.276-3.306-.511-4.67-.788-1.364-2.145-2.28-3.788-2.778-1.233-.373-2.64-.53-4.18-.493a20.9 20.9 0 0 0-1.582.1c-.453.045-.917.106-1.389.18a24.887 24.887 0 0 0-.537-1.292c-.895-1.982-1.968-3.618-3.222-4.792C23.137.816 21.666.099 20.09.099Zm0 1.751c1.05 0 2.08.462 3.102 1.419 1.02.957 1.996 2.405 2.822 4.234.134.299.262.6.383.904-2.008.447-4.134 1.132-6.308 2.047-2.173-.915-4.3-1.6-6.307-2.046.124-.31.252-.613.383-.905.826-1.83 1.802-3.278 2.823-4.235 1.021-.956 2.051-1.418 3.102-1.418ZM8.505 9.544a18.735 18.735 0 0 1 1.963.094c.32.032.646.073.978.12-.618 1.963-1.088 4.146-1.383 6.486-1.879 1.425-3.536 2.925-4.926 4.44a21.511 21.511 0 0 1-.593-.785c-1.172-1.63-1.938-3.199-2.256-4.562-.318-1.362-.203-2.485.323-3.395.525-.91 1.44-1.57 2.779-1.977.879-.266 1.93-.41 3.115-.42Zm23.172 0c1.184.011 2.236.155 3.115.421 1.34.406 2.254 1.067 2.78 1.977.525.91.64 2.033.322 3.395-.318 1.363-1.084 2.932-2.256 4.562-.191.266-.39.528-.593.786-1.39-1.516-3.046-3.015-4.925-4.44-.294-2.34-.765-4.524-1.382-6.486.33-.048.657-.09.976-.121a18.78 18.78 0 0 1 1.963-.094Zm-4.68.529a34.027 34.027 0 0 1 1.14 4.753 47.596 47.596 0 0 0-5.826-3.364 34.032 34.032 0 0 1 4.686-1.389Zm-13.81 0c1.485.32 3.06.785 4.684 1.39a47.666 47.666 0 0 0-5.824 3.362 34 34 0 0 1 1.14-4.752Zm6.904 2.293a44.814 44.814 0 0 1 4.315 2.193c1.444.833 2.8 1.721 4.058 2.642.169 1.55.26 3.168.26 4.835 0 1.665-.091 3.283-.26 4.832a44.898 44.898 0 0 1-4.057 2.641 44.844 44.844 0 0 1-4.316 2.193 44.823 44.823 0 0 1-4.316-2.193 44.825 44.825 0 0 1-4.056-2.64 44.827 44.827 0 0 1-.259-4.834c0-1.666.09-3.285.259-4.835a44.852 44.852 0 0 1 4.057-2.641 44.812 44.812 0 0 1 4.315-2.192Zm.119 2.636-5.016 3.096 5.016 3.095 5.015-3.095-5.015-3.096Zm-10.384 3.67a47.736 47.736 0 0 0 0 6.726 33.976 33.976 0 0 1-3.546-3.364 34.016 34.016 0 0 1 3.546-3.363Zm20.532 0a34.019 34.019 0 0 1 3.545 3.363 33.997 33.997 0 0 1-3.545 3.362 47.72 47.72 0 0 0 0-6.725Zm-16.294.787v6.112l5.268 3.251V22.71l-5.268-3.251Zm12.287.003-5.267 3.25v6.11l5.267-3.25v-6.11ZM5.137 23.385c1.39 1.516 3.047 3.015 4.926 4.44.294 2.34.765 4.523 1.382 6.485-.33.048-.657.088-.976.12-1.997.2-3.739.08-5.078-.327-1.34-.406-2.254-1.067-2.78-1.977-.524-.91-.64-2.032-.322-3.395s1.085-2.932 2.256-4.562c.191-.266.389-.527.592-.784Zm29.908 0c.207.262.405.524.592.784 1.171 1.63 1.938 3.199 2.256 4.562.318 1.362.203 2.485-.323 3.395-.525.91-1.44 1.571-2.779 1.977-1.339.406-3.08.527-5.078.327-.326-.033-.65-.073-.975-.12.618-1.963 1.088-4.147 1.382-6.487C32 26.4 33.655 24.9 35.045 23.385Zm-6.908 5.858a34.013 34.013 0 0 1-1.14 4.753 34.012 34.012 0 0 1-4.685-1.39 47.83 47.83 0 0 0 5.825-3.363Zm-16.09 0a47.658 47.658 0 0 0 5.823 3.363 33.985 33.985 0 0 1-4.685 1.39 33.99 33.99 0 0 1-1.139-4.752Zm8.096.08.064.04.064-.04h-.127Zm-.052 4.291c2.174.915 4.3 1.6 6.309 2.046-.121.305-.25.607-.384.907-.826 1.829-1.801 3.277-2.823 4.234-1.02.957-2.05 1.418-3.101 1.418-1.05 0-2.08-.461-3.102-1.418-1.021-.957-1.997-2.405-2.823-4.234-.134-.3-.262-.602-.384-.907 2.008-.446 4.135-1.131 6.308-2.046Z"/>
</svg>
